src/icons/main-folder.svg

<svg enable-background="new 0 0 14 11" viewBox="0 0 14 11" xmlns="http://www.w3.org/2000/svg"><path d="m0 10.3c0 .4.3.7.7.7h12.6c.4 0 .7-.3.7-.7v-6.9h-14zm13.3-8.9h-6.7l-1.2-1.2c-.1-.1-.3-.2-.5-.2h-4.2c-.4 0-.7.3-.7.7v2.1h14v-.7c0-.4-.3-.7-.7-.7z" fill="#4d5969"/></svg>

<?xml version="1.0" encoding="utf-8"?>
<!-- Generator: Adobe Illustrator 20.1.0, SVG Export Plug-In . SVG Version: 6.00 Build 0)  -->
<svg version="1.1" id="Layer_1" xmlns="http://www.w3.org/2000/svg" xmlns:xlink="http://www.w3.org/1999/xlink" x="0px" y="0px"
	 viewBox="0 0 14 11" style="enable-background:new 0 0 14 11;" xml:space="preserve">
<style type="text/css">
	.st0{fill:#4D5969;}
</style>
<title>HDL/Icon/Standard/folder</title>
<desc>Created with Sketch.</desc>
<g id="Colors">
	<g id="Main-Icons" transform="translate(-121.000000, -785.000000)">
		<g id="Folder" transform="translate(100.000000, 769.000000)">
			<g id="HDL_x2F_Icon_x2F_Standard_x2F_folder" transform="translate(21.000000, 16.000000)">
				<path id="Shape" class="st0" d="M0,10.3C0,10.7,0.3,11,0.7,11h12.6c0.4,0,0.7-0.3,0.7-0.7V3.4H0V10.3z M13.3,1.4H6.6L5.4,0.2
					l0,0C5.3,0.1,5.1,0,4.9,0H0.7C0.3,0,0,0.3,0,0.7v2.1h14V2.1C14,1.7,13.7,1.4,13.3,1.4z"/>
			</g>
		</g>
	</g>
</g>
</svg>
